FlatUX/src/svg/cursor.svg

<svg enable-background="new 0 0 256 256" viewBox="0 0 256 256" xmlns="http://www.w3.org/2000/svg"><path d="m128 120c-4.416 0-8 3.584-8 8s3.584 8 8 8 8-3.584 8-8-3.584-8-8-8zm64 4h-8.204c-1.964-27.732-24.092-49.832-51.796-51.796v-8.204c0-2.212-1.788-4-4-4s-4 1.788-4 4v8.204c-27.736 1.96-49.836 24.064-51.796 51.796h-8.204c-2.212 0-4 1.788-4 4s1.788 4 4 4h8.204c1.96 27.732 24.064 49.836 51.796 51.796v8.204c0 2.212 1.788 4 4 4s4-1.788 4-4v-8.204c27.704-1.964 49.832-24.064 51.796-51.796h8.204c2.212 0 4-1.788 4-4s-1.788-4-4-4zm-16.204 0h-16.076c-1.808-14.468-13.264-25.916-27.724-27.724v-16.076c23.292 1.932 41.872 20.484 43.8 43.8zm-47.796 28c-13.256 0-24-10.744-24-24s10.744-24 24-24c13.244 0 24 10.744 24 24s-10.756 24-24 24zm-4-71.796v16.076c-14.472 1.804-25.916 13.252-27.724 27.724h-16.076c1.928-23.32 20.484-41.876 43.8-43.8zm-43.796 51.796h16.076c1.808 14.468 13.248 25.916 27.724 27.724v16.076c-23.32-1.928-41.876-20.484-43.8-43.8zm51.796 43.796v-16.076c14.456-1.808 25.916-13.252 27.724-27.724h16.076c-1.932 23.32-20.512 41.872-43.8 43.8z" fill="#edefef"/></svg>

<svg xmlns="http://www.w3.org/2000/svg" viewBox="0 0 256 256"><path fill="#edefef" d="M128 120c-4.416 0-8 3.584-8 8s3.584 8 8 8 8-3.584 8-8-3.584-8-8-8m64 4h-8.204C181.832 96.268 159.704 74.168 132 72.204V64c0-2.212-1.788-4-4-4s-4 1.788-4 4v8.204C96.264 74.164 74.164 96.268 72.204 124H64c-2.212 0-4 1.788-4 4s1.788 4 4 4h8.204c1.96 27.732 24.064 49.836 51.796 51.796V192c0 2.212 1.788 4 4 4s4-1.788 4-4v-8.204c27.704-1.964 49.832-24.064 51.796-51.796H192c2.212 0 4-1.788 4-4s-1.788-4-4-4m-16.204 0H159.72c-1.808-14.468-13.264-25.916-27.724-27.724V80.2c23.292 1.932 41.872 20.484 43.8 43.8M128 152c-13.256 0-24-10.744-24-24s10.744-24 24-24c13.244 0 24 10.744 24 24s-10.756 24-24 24m-4-71.796V96.28c-14.472 1.804-25.916 13.252-27.724 27.724H80.2c1.928-23.32 20.484-41.876 43.8-43.8M80.204 132H96.28c1.808 14.468 13.248 25.916 27.724 27.724V175.8c-23.32-1.928-41.876-20.484-43.8-43.8M132 175.796V159.72c14.456-1.808 25.916-13.252 27.724-27.724H175.8c-1.932 23.32-20.512 41.872-43.8 43.8"/></svg>
